!!!COM: MacDowell, Edward
!!!CDT: 1860/12/18/-1908/01/23/
!!!OPR: 12 Etudes
!!!ODT: 1889///-1890///
!!!OTL: Arabesque
!!!OPS: Op. 39
!!!ONM: No. 4
!!!OMD: Allegro scherzando
**kern	**kern	**dynam/2
*staff2	*staff1	*staff1
*clefF4	*clefG2	*clefG2
*k[b-e-]	*k[b-e-]	*k[b-e-]
*M2/4	*M2/4	*M2/4
*MM120	*MM120	*MM120
8r	(8f/	p
=1	=1	=1
16BB-\ 16F\LL	16d/ 16b-/LL)	.
16BB-\ 16F\J	16d/ 16a/J	.
8BB-\ 8F\J	8d/ 8b-/J	.
16BB-\ 16G\LL	16e-/ 16b-/LL	.
16BB-\ 16G\J	16e-/ 16cc/J	.
8BB-\ 8G\J	8e-/ 8b-/J	.
=2	=2	=2
16BB-\ 16A\LL	16e-/ 16f/LL	.
16BB-\ 16A\J	16e-/ 16g/J	.
8BB-\ 8A\J	8e-/ 8f/J	.
16F\ 16B-\LL	16d/ 16f/LL	.
16F\ 16B-\J	16d/ 16g/J	.
8F\ 8B-\J	8d/ 8f/J	.
=3	=3	=3
16En\ 16G\LL	16B-/ 16d/LL	.
16E\ 16G\J	16B-/ 16en/J	.
8E\ 8G\J	8B-/ 8d/J	.
16CC/ 16GG/LL	16B-/ 16g/LL	.
16CC/ 16GG/J	16B-/ 16d/J	.
8CC/ 8GG/J	8B-/ 8d/J	.
=4	=4	=4
16C\ 16B-\LL	16d-/ 16a/LL	.
16C\ 16B-\J	16d-/ 16en/J	.
8C\ 8B-\J	8d-/ 8e/J	.
4F\ 4A\	4c/ 4f/	.
=5	=5	=5
16BB-\ 16F\LL	16d/ 16b-/LL	.
16BB-\ 16F\J	16d/ 16a/J	p
8BB-\ 8F\J	8d/ 8b-/J	.
16BB-\ 16G\LL	16e-/ 16b-/LL	.
16BB-\ 16G\J	16e-/ 16cc/J	.
8BB-\ 8G\J	8e-/ 8b-/J	.
=6	=6	=6
16BB-\ 16A\LL	16e-/ 16f/LL	.
16BB-\ 16A\J	16e-/ 16g/J	.
8BB-\ 8A\J	8e-/ 8f/J	.
16F\ 16B-\LL	16d/ 16f/LL	.
16F\ 16B-\J	16d/ 16g/J	.
8F\ 8B-\J	8d/ 8f/J	.
=7	=7	=7
16GG/ 16En/LL	16B-/ 16d/LL	.
16GG/ 16E/J	16B-/ 16c#/J	.
8GG/ 8E/J	8B-/ 8d/J	.
16CC/ 16GG/LL	16B-/ 16g/LL	.
16CC/ 16GG/J	16B-/ 16d/J	.
8CC/ 8GG/J	8B-/ 8d/J	.
=8	=8	=8
16C\ 16En\LL	16B-/ 16a/LL	.
16C\ 16E\J	16B-/ 16en/J	.
8C\ 8E\J	8B-/ 8e/J	.
4FF/ 4F/	4A/ 4f/	.
=9	=9	=9
8FFF/ 8FF/L	16r	.
.	(16F/	pp
8GGG/ 8GG/	8f/)	.
8AAA/ 8AA/	16r	.
.	(16F/	.
8BBB-/ 8BB-/J	8f/)	.
=10	=10	=10
8BBBn/ 8BBn/L	16r	.
.	(16F/	.
8CC/ 8C/	8f/)	.
8CC#/ 8C#/	16r	.
.	(16F/	pp
8DD/ 8D/J	8f/)	.
=11	=11	=11
8EE-/ 8E-/L	16r	.
.	(16F/	pp
8CCn/ 8Cn/	8f/)	.
8EEn/ 8En/	16r	.
.	(16F/	.
8CC#/ 8C#/J	8f/)	.
=12	=12	=12
8FF/ 8F/L	16r	.
.	(16F/	.
8DD/ 8D/	8f/)	.
8EE-/ 8E-/	16r	.
.	(16F/	.
8CCn/ 8Cn/J	8f/)	.
=13	=13	=13
16DD-/ 16AA-/LL	16f\ 16ff\LL	f
16DD-/ 16AA-/J	16f\ 16een\J	.
8DD-/ 8AA-/J	8f\ 8ff\J	.
16D-\ 16A-\LL	16f/ 16a-/LL	.
16D-\ 16A-\J	16f/ 16g/J	.
8D-\ 8A-\J	8f/ 8a-/J	.
=14	=14	=14
16DD-/ 16D-/LL	16f-/ 16b--/LL	.
16DD-/ 16D-/J	16f-/ 16a-/J	.
8DD-/ 8D-/J	8f-/ 8b--/J	.
16D-\ 16B--\LL	16g-\ 16dd-\LL	.
16D-\ 16B--\J	16g-\ 16cc\J	.
8D-\ 8B--\J	8g-\ 8dd-\J	.
=15	=15	=15
16DD-/ 16AA-/LL	16fn\ 16ffn\LL	.
16DD-/ 16AA-/J	16f\ 16een\J	.
8DD-/ 8AA-/J	8f\ 8ff\J	.
16D-\ 16A-\LL	16f/ 16a-/LL	.
16D-\ 16A-\J	16f/ 16gn/J	.
8D-\ 8A-\J	8f/ 8a-/J	.
=16	=16	=16
16D-\ 16Gn\LL	16en/ 16b-/LL	.
16D-\ 16G\J	16e/ 16an/J	.
8D-\ 8G\J	8e/ 8b-/J	.
16DD-/ 16D-/LL	16g-/ 16b-/ 16dd-/LL	.
16DD-/ 16D-/J	16g-/ 16b-/ 16cc/J	.
8DD-/ 8D-/J	8g-/ 8b-/ 8dd-/J	.
=17	=17	=17
8CC/ 8C/L	16r	.
.	(16f/	.
8FF/ 8F/	8ee-\ 8ff\)	.
8GG/ 8G/	16r	.
.	(16f/	.
8AAn/ 8An/J	8ee-\ 8ff\)	.
=18	=18	=18
8BB-\ 8B-\L	16r	.
.	(16f/	.
8C\ 8c\	8ee-\ 8ff\)	.
8C#\ 8c#\	16r	.
.	(16f/	.
8D\ 8d\J	8ee-\ 8ff\)	.
=19	=19	=19
8E-\ 8e-\L	16r	.
.	16f\ 16ee-\ 16ff\	.
8Cn\ 8cn\	8f\ 8ee-\ 8ff\	.
8AA\ 8A\	16f\ 16ee-\ 16ff\LL	.
.	16f\ 16ee-\ 16ff\J	.
8GG\ 8G\J	8f\ 8ee-\ 8ff\J	.
=20	=20	=20
8FF/ 8F/L	16f\ 16ee-\ 16ff\LL	.
.	16f\ 16ee-\ 16ff\J	.
8EE-/ 8E-/	8f\ 8ee-\ 8ff\J	.
8CC/ 8C/	16f\ 16ee-\ 16ff\LL	.
.	16f\ 16ee-\ 16ff\J	.
8CC-/ 8C-/J	8f\ 8ee-\ 8ff\J	.
=21	=21	=21
8BBB-/ 8BB-/	16b-\ 16bb-\LL	ff
.	16a\ 16aa\J	.
4F\ 4B-\ 4d\	8b-\ 8bb-\J	.
.	16b-\ 16bb-\LL	.
.	16cc\ 16ccc\J	.
[8G\ [8B-\ [8e-\	8b-\ 8bb-\J	.
=22	=22	=22
8G\] 8B-\] 8e-\]	16f\ 16ff\LL	.
.	16g\ 16gg\J	.
4F\ 4A\ 4e-\	8f\ 8ff\J	.
.	16f\ 16ff\LL	.
.	16g\ 16gg\J	.
8F\ 8B-\ 8d\	8f\ 8ff\J	.
=23	=23	=23
16En\ 16G\LL	16B-/ 16d/LL	p
16E\ 16G\J	16B-/ 16en/J	.
8E\ 8G\J	8B-/ 8d/J	.
16CC/ 16GG/LL	16B-/ 16g/LL	.
16CC/ 16GG/J	16B-/ 16d/J	.
8CC/ 8GG/J	8B-/ 8d/J	.
=24	=24	=24
16C\ 16B-\LL	16d-/ 16a/LL	.
16C\ 16B-\J	16d-/ 16en/J	.
8C\ 8B-\J	8d-/ 8e/J	.
4F\ 4A\	4c/ 4f/	.
=25	=25	=25
8BBB-/ 8BB-/	16b-\ 16bb-\LL	ff
.	16a\ 16aa\J	.
4F\ 4B-\ 4d\	8b-\ 8bb-\J	.
.	16b-\ 16bb-\LL	.
.	16cc\ 16ccc\J	.
[8G\ [8B-\ [8e-\	8b-\ 8bb-\J	.
=26	=26	=26
8G\] 8B-\] 8e-\]	16f\ 16ff\LL	.
.	16g\ 16gg\J	.
4F\ 4A\ 4e-\	8f\ 8ff\J	.
.	16f\ 16ff\LL	.
.	16g\ 16gg\J	.
8F\ 8B-\ 8d\	8f\ 8ff\J	.
=27	=27	=27
16GG/ 16En/LL	16B-/ 16d/LL	.
16GG/ 16E/J	16B-/ 16c#/J	.
8GG/ 8E/J	8B-/ 8d/J	.
16CC/ 16GG/LL	16B-/ 16g/LL	.
16CC/ 16GG/J	16B-/ 16d/J	.
8CC/ 8GG/J	8B-/ 8d/J	.
=28	=28	=28
16C\ 16En\LL	16B-/ 16a/LL	.
16C\ 16E\J	16B-/ 16en/J	.
8C\ 8E\J	8B-/ 8e/J	.
4FF/ 4F/	4A/ 4f/	.
=29	=29	=29
8FFF/ 8FF/L	16G/ 16B-/ 16e-/LL	.
.	16f/J	.
8FFF/ 8FF/	8G/ 8B-/ 8e-/J	.
8FFF/ 8FF/	16F/ 16B-/ 16d-/LL	.
.	16e-/J	.
8FFF/ 8FF/J	8F/ 8B-/ 8d-/J	.
*	*clefF4	*clefF4
=30	=30	=30
8FFF/ 8FF/L	16E-\ 16G-\ 16c\LL	.
.	16d-\J	.
8FFF/ 8FF/	8E-\ 8G-\ 8c\J	.
8FFF/ 8FF/	16D-\ 16F\ 16B-\LL	.
.	16c\J	.
8FFF/ 8FF/J	8D-\ 8F\ 8B-\J	.
=31	=31	=31
8FF/ 8C/L	16E-\ 16A-\LL	.
.	16B-\J	.
8FF/ 8C/	8E-\ 8A-\J	.
8FF/ 8BB-/	16D\ 16G-\LL	.
.	16A-\J	.
8FF/ 8BB-/J	8D\ 8G-\J	.
=32	=32	=32
8FF/ 8AAn/L	16C\ 16F\LL	.
.	16G-\J	.
8FF/ 8AA/	8C\ 8F\J	.
8FF/ 8BB-/	16D-\ 16En\LL	.
.	16F\J	.
8FF/ 8BB-/J	8D-\ 8E\J	.
=33	=33	=33
*^	*	*
16AA/	[2FF\	16r	.
16r	.	16C\ 16F\	pp
16BB-/	.	16r	.
16r	.	16D\ 16G-\	.
16BBn/	.	16r	.
16r	.	16D\ 16G-\	.
16C/	.	16r	.
16r	.	16E-\ 16A-\	.
=34	=34	=34	=34
16C#/	4FF\]	16r	.
16r	.	16En\ 16An\	.
16D/	.	16r	.
16r	.	16F\ 16B-\	.
16E-/	4r	16r	.
16r	.	16F#\ 16Bn\	.
16En/	.	16r	.
16r	.	16Gn\ 16c\	.
*v	*v	*	*
=35	=35	=35
16F/	16r	.
16r	16A-\ 16d-\	.
16F#/	16r	.
16r	16An\ 16dn\	.
16G/	16r	.
16r	16B-\ 16e-\	.
16G#/	16r	.
16r	16Bn\ 16en\	.
*	*clefG2	*clefG2
=36	=36	=36
16A/	16r	.
16r	16c\ 16f\	.
16B-/	16r	.
16r	16d-\ 16g-\	.
16Bn/	16r	.
16r	16dn\ 16gn\	.
16B-/	16r	.
16r	16d\ 16g-\	.
=37	=37	=37
*^	*	*
16A/	[2F\	16r	.
16r	.	16c\ 16f\	.
16B-/	.	16r	.
16r	.	16c#\ 16f#\	.
16Bn/	.	16r	.
16r	.	16d\ 16g\	.
16cn/	.	16r	.
16r	.	16e-\ 16a-\	.
=38	=38	=38	=38
16c#/	4F\]	16r	.
16r	.	16en\ 16an\	.
16d/	.	16r	.
16r	.	16f\ 16b-\	.
16e-/	4r	16r	.
16r	.	16f#\ 16bn\	.
16en/	.	16r	.
16r	.	16g\ 16ccn\	.
*v	*v	*	*
=39	=39	=39
16f/	16r	.
16r	16a-\ 16dd-\	.
16f#/	16r	.
16r	16an\ 16ddn\	.
16g/	16r	.
16r	16b-\ 16ee-\	.
16g#/	16r	.
16r	16bn\ 16een\	.
=40	=40	=40
16a/	16r	.
16r	16cc\ 16ff\	.
16b-/	16r	.
16r	16dd-\ 16gg-\	.
16a/	16r	.
16r	16cc\ 16ff\	.
8f/	8r	.
=41	=41	=41
8D-\L	16a-\ (16ff\LL	ff
.	16ee-\)	.
8A-\ 8e-\ 8g-\	16b--\ (16dd-\	.
.	16ee-\JJ	.
8d-\ 8f\	16a-\ (16ff\LL)	.
.	(16ee-\)	.
8A-\ 8e-\ 8g-\J	16b--\ 16dd-\	.
.	16ee-\JJ)	.
=42	=42	=42
8d-\ 8f\L	16a-\ (16ff\LL	.
.	16ee-\)	.
8A-\ 8e-\ 8g-\	16b--\ (16dd-\	.
.	16ee-\JJ)	.
8d-\ 8f\	16a-\ (16ff\LL	.
.	16aa-\J)	.
8A-\ 8e-\ 8g-\J	8a-\ 8ee-\J	.
=43	=43	=43
8D-\L	16a-\ (16ff\LL	.
.	16ee-\)	.
8A-\ 8e-\ 8g-\	16b--\ (16dd-\	.
.	16ee-\JJ)	.
8d-\ 8f\	16a-\ (16ff\LL	.
.	(16ee-\)	.
8A-\ 8e-\ 8g-\J	16b--\ 16dd-\	.
.	16ee-\JJ)	.
=44	=44	=44
8d-\ 8f\L	16a-\ (16ff\LL	.
.	16ee-\)	.
8A-\ 8e-\ 8g-\	16b--\ (16dd-\	.
.	16ee-\JJ)	.
8d-\ 8f\	16a-\ (16ff\LL	.
.	16aa-\J)	.
8B-\ 8d-\ 8e-\J	8gn\ 8ee-\J	.
=45	=45	=45
8.FF^\ 8.A-^\L	8.a-^\ 8.dd-^\ 8.aa-^\L	.
16f\Jk	16ff\Jk	.
8e-\L	8ee-\L	.
8d-\J	8dd-\J	.
=46	=46	=46
16c\LL	16cc\LL	.
16c-\	16cc-\	.
16B-\	16b-\	.
16B--\JJ	16b--\JJ	.
(8A-\L	8a-/L	.
8F\J)	8f/J	.
=47	=47	=47
*^	*	*
8.E-/L	2GG-\	8.B-^/ 8.e-^/L	.
16D-/Jk	.	16d-/Jk	.
8BB-/L	.	8B-/L	.
8D-/J	.	8d-/J	.
=48	=48	=48	=48
8.En/L	2GGn\	8.B-^/ 8.en^/L	.
16D-/Jk	.	16d-/Jk	.
8BB-/L	.	8B-/L	.
8E/J	.	8e/J	.
*v	*v	*	*
=49	=49	=49
8AA-'/ 8F'/	8d-'/ 8f'/	.
16B-/	16r	.
16r	16d-\ 16g-\	.
16Bn/	16r	.
16r	16dn\ 16gn\	.
16c/	16r	.
16r	16e-\ 16a-\	.
=50	=50	=50
16c#/	16r	.
16r	16e-\ 16a\	.
16d/	16r	.
16r	16f\ 16b-\	.
16e-/	16r	.
16r	[16g-\ 16bn\	.
8A-'/	8g-'\] 8cc'\	.
=51	=51	=51
8D-\L	16a-\ (16ff\LL	ff
.	16ee-\)	.
8A-\ 8e-\ 8g-\	16b--\ (16dd-\	.
.	16ee-\JJ	.
8d-\ 8f\	16a-\ (16ff\LL)	.
.	16ee-\	.
8A-\ 8e-\ 8g-\J	16b--\ (16dd-\)	.
.	16ee-\JJ)	.
=52	=52	=52
8d-\ 8f\L	16a-\ (16ff\LL	.
.	(16ee-\)	.
8A-\ 8e-\ 8g-\	16b--\ 16dd-\	.
.	16ee-\JJ)	.
8d-\ 8f\	16a-\ (16ff\LL	.
.	16aa-\J)	.
8A-\ 8e-\ 8g-\J	8a-\ 8ee-\J	.
=53	=53	=53
8D-\L	16a-\ (16ff\LL	.
.	16ee-\)	.
8A-\ 8e-\ 8g-\	16b--\ (16dd-\	.
.	16ee-\JJ)	.
8d-\ 8f\	16a-\ (16ff\LL	.
.	16ee-\)	.
8A-\ 8e-\ 8g-\J	16b--\ (16dd-\	.
.	16ee-\JJ)	.
=54	=54	=54
8d-\ 8f\L	16a-\ (16ff\LL	.
.	16ee-\)	.
8A-\ 8e-\ 8g-\	16b--\ (16dd-\	.
.	16ee-\JJ)	.
8d-\ 8f\	16a-\ (16ff\LL	.
.	16aa-\J)	.
8G-\ 8d-\ 8e-\J	8an\ 8ee-\J	.
=55	=55	=55
8.FF^\ 8.An^\L	8.g-^\ 8.cc^\ 8.gg-^\L	.
16f\Jk	16ff\Jk	.
8e-\L	8ee-\L	.
8dn\J	8ddn\J	.
=56	=56	=56
16d-\LL	16dd-\LL	.
16cn\	16ccn\	.
16c-\	16cc-\	.
16B-\JJ	16b-\JJ	.
8An\L	8an/L	.
8G-\J	8g-/J	.
=57	=57	=57
8.GG-^/ 8.F^/L	8.G-^/ 8.B-^/ 8.f^/L	.
16F-/Jk	16f-/Jk	.
8E-\L	8e-/L	.
8D-\J	8d-/J	.
=58	=58	=58
8EE-/ 8C/L	8G-/ 8c/L	.
8BB-/	8B-/	.
8AA-/	8A-/	.
8GG-/J	8G-/J	.
=59	=59	=59
8FF/L	16F/LL	mf
.	16G-/J	.
8GG-/	8F/J	.
8FF/	16F/LL	.
.	16G-/J	.
8EEn/J	8F/J	.
=60	=60	=60
8EE-/L	16F/LL	.
.	16G-/J	.
8DDn/	8F/J	.
8DD-/	16F/LL	.
.	16G-/J	.
8CC/J	8F/J	.
=61	=61	=61
8CC-/L	4r	.
8BBB-/	.	.
8BBB--/	16F/LL	.
.	16G-/J	.
8AAA-/J	8F/J	.
=62	=62	=62
8GGGn/L	4r	.
8GGG-/J	.	.
8FFF/	16F/LL	.
.	16G-/J	.
8r	8F/J	.
=63	=63	=63
16BB-\ 16F\LL	16d/ 16b-/LL	p
16BB-\ 16F\J	16d/ 16a/J	.
8BB-\ 8F\J	8d/ 8b-/J	.
16BB-\ 16G\LL	16e-/ 16b-/LL	.
16BB-\ 16G\J	16e-/ 16cc/J	.
8BB-\ 8G\J	8e-/ 8b-/J	.
=64	=64	=64
16BB-\ 16A\LL	16e-/ 16f/LL	.
16BB-\ 16A\J	16e-/ 16g/J	.
8BB-\ 8A\J	8e-/ 8f/J	.
16F\ 16B-\LL	16d/ 16f/LL	.
16F\ 16B-\J	16d/ 16g/J	.
8F\ 8B-\J	8d/ 8f/J	.
=65	=65	=65
16En\ 16G\LL	16B-/ 16d/LL	.
16E\ 16G\J	16B-/ 16en/J	.
8E\ 8G\J	8B-/ 8d/J	.
16CC/ 16GG/LL	16B-/ 16g/LL	.
16CC/ 16GG/J	16B-/ 16d/J	.
8CC/ 8GG/J	8B-/ 8d/J	.
=66	=66	=66
16C\ 16B-\LL	16d-/ 16a/LL	.
16C\ 16B-\J	16d-/ 16en/J	.
8C\ 8B-\J	8d-/ 8e/J	.
4F\ 4A\	4c/ 4f/	.
=67	=67	=67
16BB-'\ 16F'\LL	16d'/ 16b-'/LL	.
16BB-\ 16F\J	16d/ 16a/J	p
8BB-\ 8F\J	8d/ 8b-/J	.
16BB-\ 16G\LL	16e-/ 16b-/LL	.
16BB-\ 16G\J	16e-/ 16cc/J	.
8BB-\ 8G\J	8e-/ 8b-/J	.
=68	=68	=68
16BB-\ 16A\LL	16e-/ 16f/LL	.
16BB-\ 16A\J	16e-/ 16g/J	.
8BB-\ 8A\J	8e-/ 8f/J	.
16F\ 16B-\LL	16d/ 16f/LL	.
16F\ 16B-\J	16d/ 16g/J	.
8F\ 8B-\J	8d/ 8f/J	.
=69	=69	=69
16GG/ 16En/LL	16B-/ 16d/LL	.
16GG/ 16E/J	16B-/ 16c#/J	.
8GG/ 8E/J	8B-/ 8d/J	.
16CC/ 16GG/LL	16B-/ 16g/LL	.
16CC/ 16GG/J	16B-/ 16d/J	.
8CC/ 8GG/J	8B-/ 8d/J	.
=70	=70	=70
16C/ 16En/LL	16B-/ 16a/LL	.
16C/ 16E/J	16B-/ 16en/J	.
8C/ 8E/J	8B-/ 8e/J	.
4FF/ 4F/	4A/ 4f/	.
=71	=71	=71
16DD-/ 16AA-/LL	16f\ 16ff\LL	f
16DD-/ 16AA-/J	16f\ 16een\J	.
8DD-/ 8AA-/J	8f\ 8ff\J	.
16D-\ 16A-\LL	16f/ 16a-/LL	.
16D-\ 16A-\J	16f/ 16g/J	.
8D-\ 8A-\J	8f/ 8a-/J	.
=72	=72	=72
16DD-/ 16D-/LL	16f/ 16b-/LL	.
16DD-/ 16D-/J	16f/ 16a-/J	.
8DD-/ 8D-/J	8f/ 8b-/J	.
16D-\ 16B--\LL	16g-\ 16dd-\LL	.
16D-\ 16B--\J	16g-\ 16cc\J	.
8D-\ 8B--\J	8g-\ 8dd-\J	.
=73	=73	=73
16DD-/ 16AA-/LL	16fn\ 16ffn\LL	.
16DD-/ 16AA-/J	16f\ 16een\J	.
8DD-/ 8AA-/J	8f\ 8ff\J	.
16D-\ 16A-\LL	16f/ 16a-/LL	.
16D-\ 16A-\J	16f/ 16gn/J	.
8D-\ 8A-\J	8f/ 8a-/J	.
=74	=74	=74
16D-\ 16Gn\LL	16en/ 16b-/LL	.
16D-\ 16G\J	16e/ 16an/J	.
8D-\ 8G\J	8e/ 8b-/J	.
8CC/ 8C/	16ee-\ 16ff\LL	.
.	16f\JJ	.
8FF'/ 8F'/	8r	.
=75	=75	=75
8BBB-/ 8BB-/	16b-\ 16bb-\LL	ff
.	16a\ 16aa\J	.
4F\ 4B-\ 4d\	8b-\ 8bb-\J	.
.	16b-\ 16bb-\LL	.
.	16cc\ 16ccc\J	.
[8G\ [8B-\ [8e-\	8b-\ 8bb-\J	.
=76	=76	=76
8G\] 8B-\] 8e-\]	16f\ 16ff\LL	.
.	16g\ 16gg\J	.
4F\ 4A\ 4e-\	8f\ 8ff\J	.
.	16f\ 16ff\LL	.
.	16g\ 16gg\J	.
8F\ 8B-\ 8d\	8f\ 8ff\J	.
=77	=77	=77
16En\ 16G\LL	16B-/ 16d/LL	p
16E\ 16G\J	16B-/ 16en/J	.
8E\ 8G\J	8B-/ 8d/J	.
16CC/ 16GG/LL	16B-/ 16g/LL	.
16CC/ 16GG/J	16B-/ 16d/J	.
8CC/ 8GG/J	8B-/ 8d/J	.
=78	=78	=78
16C\ 16B-\LL	16d-/ 16a/LL	.
16C\ 16B-\J	16d-/ 16en/J	.
8C\ 8B-\J	8d-/ 8e/J	.
4F\ 4A\	4c/ 4f/	.
=79	=79	=79
8BBB-/ 8BB-/	16b-\ 16bb-\LL	ff
.	16a\ 16aa\J	.
4F\ 4B-\ 4d\	8b-\ 8bb-\J	.
.	16b-\ 16bb-\LL	.
.	16cc\ 16ccc\J	.
[8G\ [8B-\ [8e-\	8b-\ 8bb-\J	.
=80	=80	=80
8G\] 8B-\] 8e-\]	16f\ 16ff\LL	.
.	16g\ 16gg\J	.
4F\ 4A\ 4e-\	8f\ 8ff\J	.
.	16f\ 16ff\LL	.
.	16g\ 16gg\J	.
8F\ 8B-\ 8d\	8f\ 8ff\J	.
=81	=81	=81
16GG/ 16En/LL	16B-/ 16d/LL	p
16GG/ 16E/J	16B-/ 16c#/J	.
8GG/ 8E/J	8B-/ 8d/J	.
16CC/ 16GG/LL	16B-/ 16g/LL	.
16CC/ 16GG/J	16B-/ 16d/J	.
8CC/ 8GG/J	8B-/ 8d/J	.
=82	=82	=82
16C\ 16En\LL	16B-/ 16a/LL	.
16C\ 16E\J	16B-/ 16en/J	.
8C\ 8E\J	8B-/ 8e/J	.
4FF/ 4F/	4A/ 4f/	.
=83	=83	=83
8FFF/ 8FF/L	16G/ 16B-/ 16e-/LL	.
.	16f/J	.
8FFF/ 8FF/	8G/ 8B-/ 8e-/J	.
8FFF/ 8FF/	16F/ 16B-/ 16d-/LL	.
.	16e-/J	.
8FFF/ 8FF/J	8F/ 8B-/ 8d-/J	.
*	*clefF4	*clefF4
=84	=84	=84
8FFF/ 8FF/L	16E-\ 16G-\ 16c\LL	.
.	16d-\J	.
8FFF/ 8FF/	8E-\ 8G-\ 8c\J	.
8FFF/ 8FF/	16D-\ 16F\ 16B-\LL	.
.	16c\J	.
8FFF/ 8FF/J	8D-\ 8F\ 8B-\J	.
=85	=85	=85
8FF/ 8C/L	16E-\ 16A-\LL	.
.	16B-\J	.
8FF/ 8C/	8E-\ 8A-\J	.
8FF/ 8BB-/	16D\ 16G-\LL	.
.	16A-\J	.
8FF/ 8BB-/J	8D\ 8G-\J	.
=86	=86	=86
8FF/ 8AAn/L	16C\ 16F\LL	.
.	16G-\J	.
8FF/ 8AA/	8C\ 8F\J	.
8FF/ 8BB-/	16D-\ 16En\LL	.
.	16F\J	.
8FF/ 8BB-/J	8D-\ 8E\J	pp
=87	=87	=87
*^	*	*
16AA/	[2FF\	16r	.
16r	.	16C\ 16F\	.
16BB-/	.	16r	.
16r	.	16D\ 16G-\	.
16BBn/	.	16r	.
16r	.	16D\ 16G-\	.
16C/	.	16r	.
16r	.	16E-\ 16A-\	.
=88	=88	=88	=88
16C#/	4FF\]	16r	.
16r	.	16En\ 16An\	.
16D/	.	16r	.
16r	.	16F\ 16B-\	.
16E-/	4r	16r	.
16r	.	16F\ 16B-\	.
16En/	.	16r	.
16r	.	16G\ 16c\	.
*v	*v	*	*
=89	=89	=89
16F/	16r	.
16r	16A-\ 16d-\	.
16F#/	16r	.
16r	16An\ 16dn\	.
16G/	16r	.
16r	16B-\ 16e-\	.
16G#/	16r	.
16r	16Bn\ 16en\	.
*	*clefG2	*clefG2
=90	=90	=90
16A/	16r	.
16r	16c\ 16f\	.
16B-/	16r	.
16r	16c#\ 16f#\	.
16c-/	16r	.
16r	16d\ 16g\	.
16B-/	16r	.
16r	16d\ 16g-\	.
=91	=91	=91
*^	*	*
16A/	([2F\	16r	.
16r	.	16c\ 16f\	.
16B-/)	.	16r	.
16r	.	16c\ 16f#\	.
16Bn/	.	16r	.
16r	.	16d\ 16g\	.
16cn/	.	16r	.
16r	.	16e-\ 16a-\	.
=92	=92	=92	=92
16c#/	4F\]	16r	.
16r	.	16e-\ 16a\	.
16d/	.	16r	.
16r	.	16f\ 16b-\	.
16e-/	4r	16r	.
16r	.	16f#\ 16bn\	.
16en/	.	16r	.
16r	.	16g\ 16ccn\	.
*v	*v	*	*
=93	=93	=93
16f/	16r	.
16r	16a\ 16dd-\	.
16f#/	16r	.
16r	16an\ 16ddn\	.
16g/	16r	.
16r	16b-\ 16ee-\	.
16g#/	16r	.
16r	16bn\ 16een\	.
=94	=94	=94
16a/	16r	.
16r	16cc\ 16ff\	.
16b-/	16r	.
16r	16dd-\ (16gg-\	.
16a/	16r	.
16r	16ff\	.
8f\	8ccc\ 8eee-\) 8fff\	.
=95	=95	=95
8r	4bb-^\ 4ddd^\ 4fff^\ 4bbb-^\	ff
8BBB-/ 8BB-/	.	.
8r	4ff^\ 4aa^\ 4ccc^\ 4fff^\	.
8FF/ 8C/ 8E-/ 8F/	.	.
=96	=96	=96
8r	4b-^\ 4dd^\ 4ff^\ 4bb-^\	.
8BB-\ 8D\ 8F\ 8B-\	.	.
8r	4a^\ 4ee-^\ 4ff^\	.
8F\ 8c\ 8e-\	.	.
=97	=97	=97
4B-\ 4d\	4f^/ 4b-^/	.
4FF^/ 4F^/	4f^/	.
=98	=98	=98
4BBB-^/ 4BB-^/	4B-^/	.
4FFF^/ 4FF^/	4F^/	.
=99	=99	=99
4BBBB-/ 4BBB-/	4BB-^/	.
4r	4r	.
=100	=100	=100
2F^\ 2c^\ 2e-^\	2f^\ 2a^\ 2ee-^\ 2ff^\	.
=101	=101	=101
2BB-^\ 2F^\ 2d^\	2b-^\ 2dd^\ 2ff^\ 2bb-^\	.
=102	=102	=102
2FF/ 2F/	2f^\ 2a^\ 2cc^\ 2ee-^\ 2ff^\	.
=103	=103	=103
(BBB-q/	.	.
*^	*	*
[2d^\ [2f^\ [2b-^\ [2dd^\	[2BBB-\) [2BB-\	[2dd^\ [2ff^\ [2bb-^\ [2ddd^\	.
=104	=104	=104	=104
4d\] 4f\] 4b-\] 4dd\]	4BBB-\] 4BB-\]	4dd\] 4ff\] 4bb-\] 4ddd\]	.
4r	4r	4r	.
*v	*v	*	*
==	==	==
*-	*-	*-
!!!ENC: Craig Stuart Sapp
!!!END: 2004/09/02/
